src/svg/ftp_illustration.svg

<svg width="279" height="269" viewBox="0 0 279 269" fill="none" xmlns="http://www.w3.org/2000/svg">
<g opacity="0.85">
<path opacity="0.85" d="M228.866 56.0197H50.1339C47.9248 56.0197 46.1339 57.8106 46.1339 60.0197V238.752C46.1339 240.961 47.9248 242.752 50.1339 242.752H228.866C231.075 242.752 232.866 240.961 232.866 238.752V60.0197C232.866 57.8106 231.075 56.0197 228.866 56.0197Z" fill="#E4E8EB"/>
<path opacity="0.85" d="M139.5 237.26C188.031 237.26 227.374 197.917 227.374 149.386C227.374 100.855 188.031 61.512 139.5 61.512C90.9685 61.512 51.626 100.855 51.626 149.386C51.626 197.917 90.9685 237.26 139.5 237.26Z" fill="#8194A1"/>
<g opacity="0.85" filter="url(#filter0_d)">
<path opacity="0.85" d="M97.76 95.1694C97.76 92.9602 99.5509 91.1694 101.76 91.1694H161.264C162.325 91.1694 163.342 91.5908 164.092 92.3409L173.16 101.409L182.228 110.477C182.979 111.227 183.4 112.244 183.4 113.305V197.012C183.4 199.221 181.609 201.012 179.4 201.012H101.76C99.5509 201.012 97.76 199.221 97.76 197.012V95.1694Z" fill="#E4E8EB"/>
</g>
<g opacity="0.85" filter="url(#filter1_d)">
<path opacity="0.85" d="M162.921 91.1694L173.16 101.409L183.4 111.648H164.921C163.816 111.648 162.921 110.753 162.921 109.648V91.1694Z" fill="#D2DCE3"/>
</g>
<path opacity="0.85" d="M109.294 108.744C108.384 108.744 107.646 109.482 107.646 110.392C107.646 111.302 108.384 112.039 109.294 112.039H138.951C139.861 112.039 140.599 111.302 140.599 110.392C140.599 109.482 139.861 108.744 138.951 108.744H109.294Z" fill="#8194A1"/>
<path opacity="0.85" d="M109.293 117.532C108.383 117.532 107.646 118.269 107.646 119.179C107.646 120.089 108.383 120.827 109.293 120.827H156.526C157.436 120.827 158.173 120.089 158.173 119.179C158.173 118.269 157.436 117.532 156.526 117.532H109.293Z" fill="#8194A1"/>
<path opacity="0.85" d="M141.621 181.165L160.713 162.073C161.885 160.901 161.885 159.002 160.713 157.83C159.542 156.659 157.642 156.659 156.471 157.83L142.5 171.801V146.091H136.5V171.801L122.53 157.83C121.358 156.659 119.458 156.659 118.287 157.83C117.115 159.002 117.115 160.901 118.287 162.073L137.379 181.165C138.55 182.336 140.45 182.336 141.621 181.165Z" fill="#8194A1"/>
<path opacity="0.85" d="M161.469 184.755H117.532V190.028H161.469V184.755Z" fill="#8194A1"/>
</g>
<defs>
<filter id="filter0_d" x="93.76" y="91.1694" width="93.64" height="117.843" filterUnits="userSpaceOnUse" color-interpolation-filters="sRGB">
<feFlood flood-opacity="0" result="BackgroundImageFix"/>
<feColorMatrix in="SourceAlpha" type="matrix" values="0 0 0 0 0 0 0 0 0 0 0 0 0 0 0 0 0 0 127 0"/>
<feOffset dy="4"/>
<feGaussianBlur stdDeviation="2"/>
<feColorMatrix type="matrix" values="0 0 0 0 0 0 0 0 0 0 0 0 0 0 0 0 0 0 0.25 0"/>
<feBlend mode="normal" in2="BackgroundImageFix" result="effect1_dropShadow"/>
<feBlend mode="normal" in="SourceGraphic" in2="effect1_dropShadow" result="shape"/>
</filter>
<filter id="filter1_d" x="158.921" y="91.1694" width="28.479" height="28.4786" filterUnits="userSpaceOnUse" color-interpolation-filters="sRGB">
<feFlood flood-opacity="0" result="BackgroundImageFix"/>
<feColorMatrix in="SourceAlpha" type="matrix" values="0 0 0 0 0 0 0 0 0 0 0 0 0 0 0 0 0 0 127 0"/>
<feOffset dy="4"/>
<feGaussianBlur stdDeviation="2"/>
<feColorMatrix type="matrix" values="0 0 0 0 0 0 0 0 0 0 0 0 0 0 0 0 0 0 0.15 0"/>
<feBlend mode="normal" in2="BackgroundImageFix" result="effect1_dropShadow"/>
<feBlend mode="normal" in="SourceGraphic" in2="effect1_dropShadow" result="shape"/>
</filter>
</defs>
</svg>

<svg width="279" height="269" fill="none" xmlns="http://www.w3.org/2000/svg"><g opacity=".85"><path opacity=".85" d="M228.866 56.02H50.134a4 4 0 00-4 4v178.732a4 4 0 004 4h178.732a4 4 0 004-4V60.02a4 4 0 00-4-4z" fill="#E4E8EB"/><path opacity=".85" d="M139.5 237.26c48.531 0 87.874-39.343 87.874-87.874 0-48.531-39.343-87.874-87.874-87.874-48.531 0-87.874 39.343-87.874 87.874 0 48.531 39.343 87.874 87.874 87.874z" fill="#8194A1"/><g opacity=".85" filter="url(#filter0_d)"><path opacity=".85" d="M97.76 95.17a4 4 0 014-4h59.504c1.061 0 2.078.42 2.828 1.17l9.068 9.069 9.068 9.068a3.995 3.995 0 011.172 2.828v83.707a4 4 0 01-4 4h-77.64a4 4 0 01-4-4V95.169z" fill="#E4E8EB"/></g><g opacity=".85" filter="url(#filter1_d)"><path opacity=".85" d="M162.921 91.17l10.239 10.239 10.24 10.239h-18.479a2 2 0 01-2-2V91.169z" fill="#D2DCE3"/></g><path opacity=".85" d="M109.294 108.744a1.648 1.648 0 000 3.295h29.657a1.647 1.647 0 100-3.295h-29.657zM109.293 117.532a1.647 1.647 0 100 3.295h47.233a1.647 1.647 0 000-3.295h-47.233zM141.621 181.165l19.092-19.092a3 3 0 10-4.242-4.243L142.5 171.801v-25.71h-6v25.71l-13.97-13.971a3.001 3.001 0 00-4.243 4.243l19.092 19.092a3 3 0 004.242 0zM161.469 184.755h-43.937v5.273h43.937v-5.273z" fill="#8194A1"/></g><defs><filter id="filter0_d" x="93.76" y="91.169" width="93.64" height="117.843" filterUnits="userSpaceOnUse" color-interpolation-filters="sRGB"><feFlood flood-opacity="0" result="BackgroundImageFix"/><feColorMatrix in="SourceAlpha" values="0 0 0 0 0 0 0 0 0 0 0 0 0 0 0 0 0 0 127 0"/><feOffset dy="4"/><feGaussianBlur stdDeviation="2"/><feColorMatrix values="0 0 0 0 0 0 0 0 0 0 0 0 0 0 0 0 0 0 0.25 0"/><feBlend in2="BackgroundImageFix" result="effect1_dropShadow"/><feBlend in="SourceGraphic" in2="effect1_dropShadow" result="shape"/></filter><filter id="filter1_d" x="158.921" y="91.169" width="28.479" height="28.479" filterUnits="userSpaceOnUse" color-interpolation-filters="sRGB"><feFlood flood-opacity="0" result="BackgroundImageFix"/><feColorMatrix in="SourceAlpha" values="0 0 0 0 0 0 0 0 0 0 0 0 0 0 0 0 0 0 127 0"/><feOffset dy="4"/><feGaussianBlur stdDeviation="2"/><feColorMatrix values="0 0 0 0 0 0 0 0 0 0 0 0 0 0 0 0 0 0 0.15 0"/><feBlend in2="BackgroundImageFix" result="effect1_dropShadow"/><feBlend in="SourceGraphic" in2="effect1_dropShadow" result="shape"/></filter></defs></svg>
